X:2
T: Taiyang dang ding zheng dang zhong
N: C1502
O: China,Sichuan, Xiushan
S: II, 238]
R: Shange]
M: 2/4
L: 1/16
K: Bb
f2f2 | b6c2 | f2c2e2c2 | b4f2ce | f6ef | fc3bgfz |
f2f2f2f2 | d2f2d2c2 | f2cdf2d2 | c6b2 | e2cdcbgf |
z4f2f2 | b6c2 | f2g2f4 | c4f2ce | f6ef | fe2cbgfz |
f2cdf2f2 | f2f2d2c2 | f2cdf2d2 | c6b2 |
e2cdb3g

@@@ Tune index: 6557
